src/icons/servers.svg

<?xml version="1.0" encoding="UTF-8"?>
<svg xmlns="http://www.w3.org/2000/svg" xmlns:xlink="http://www.w3.org/1999/xlink" width="32" height="32" viewBox="0 0 32 32" version="1.1">
<g id="surface1">
<path style=" stroke:none;fill-rule:nonzero;fill:rgb(0%,0%,0%);fill-opacity:1;" d="M 17.675781 2.558594 C 17.1875 2.558594 16.746094 2.832031 16.53125 3.265625 L 15.46875 5.390625 C 15.953125 5.636719 16.359375 6.027344 16.613281 6.539062 L 17.707031 8.71875 C 17.847656 8.988281 17.917969 9.289062 17.921875 9.59375 L 17.921875 25.601562 L 28.800781 25.601562 C 29.152344 25.601562 29.441406 25.3125 29.441406 24.960938 L 29.441406 5.757812 C 29.441406 5.65625 29.414062 5.550781 29.367188 5.460938 L 28.269531 3.269531 C 28.054688 2.835938 27.609375 2.558594 27.125 2.558594 Z M 17.675781 3.839844 L 27.125 3.839844 L 27.765625 5.121094 L 17.035156 5.121094 Z M 4.875 6.398438 C 4.386719 6.398438 3.949219 6.671875 3.730469 7.109375 L 2.632812 9.300781 C 2.585938 9.394531 2.558594 9.496094 2.558594 9.597656 L 2.558594 28.800781 C 2.558594 29.152344 2.847656 29.441406 3.199219 29.441406 L 16 29.441406 C 16.351562 29.441406 16.640625 29.152344 16.640625 28.800781 L 16.640625 9.597656 C 16.640625 9.496094 16.613281 9.394531 16.566406 9.300781 L 15.46875 7.109375 C 15.253906 6.671875 14.8125 6.398438 14.324219 6.398438 Z M 4.875 7.679688 L 14.324219 7.679688 L 14.964844 8.960938 L 4.234375 8.960938 Z M 19.199219 8.320312 L 26.878906 8.320312 L 26.878906 10.878906 L 19.199219 10.878906 Z M 5.761719 12.160156 L 13.441406 12.160156 L 13.441406 14.71875 L 5.761719 14.71875 Z M 19.199219 12.160156 L 26.878906 12.160156 L 26.878906 14.71875 L 19.199219 14.71875 Z M 5.761719 16 L 13.441406 16 L 13.441406 18.558594 L 5.761719 18.558594 Z M 23.039062 17.921875 C 23.390625 17.921875 23.675781 18.207031 23.675781 18.558594 C 23.675781 18.914062 23.390625 19.199219 23.039062 19.199219 C 22.6875 19.199219 22.398438 18.914062 22.398438 18.558594 C 22.402344 18.207031 22.6875 17.921875 23.039062 17.921875 M 23.039062 20.480469 C 23.277344 20.464844 23.5 20.585938 23.625 20.789062 C 23.746094 20.992188 23.746094 21.246094 23.625 21.449219 C 23.5 21.652344 23.277344 21.773438 23.039062 21.761719 C 22.699219 21.742188 22.433594 21.460938 22.433594 21.121094 C 22.433594 20.78125 22.699219 20.5 23.039062 20.480469 M 9.601562 21.761719 C 9.953125 21.761719 10.238281 22.050781 10.238281 22.402344 C 10.238281 22.753906 9.949219 23.039062 9.597656 23.039062 C 9.246094 23.039062 8.960938 22.75 8.960938 22.398438 C 8.960938 22.230469 9.027344 22.066406 9.148438 21.945312 C 9.269531 21.828125 9.433594 21.761719 9.601562 21.761719 M 9.601562 24.320312 C 9.957031 24.320312 10.242188 24.605469 10.242188 24.960938 C 10.242188 25.3125 9.957031 25.601562 9.601562 25.601562 C 9.261719 25.582031 8.996094 25.300781 8.996094 24.960938 C 8.996094 24.621094 9.261719 24.339844 9.601562 24.320312 M 9.601562 24.320312 "/>
</g>
</svg>

<svg role="img" viewBox="0 0 32 32" xmlns="http://www.w3.org/2000/svg"><path d="M17.676 2.559c-.488 0-.93.273-1.145.707L15.47 5.39c.484.246.89.636 1.144 1.148l1.094 2.18c.14.27.211.57.215.875v16.008H28.8c.351 0 .64-.29.64-.641V5.758a.643.643 0 0 0-.074-.297L28.27 3.27a1.274 1.274 0 0 0-1.145-.711Zm0 1.28h9.449l.64 1.282h-10.73ZM4.875 6.4c-.488 0-.926.273-1.145.71L2.633 9.301a.643.643 0 0 0-.074.297V28.8c0 .351.289.64.64.64H16c.352 0 .64-.289.64-.64V9.598a.643.643 0 0 0-.074-.297L15.47 7.109a1.27 1.27 0 0 0-1.145-.71Zm0 1.28h9.45l.64 1.282H4.235Zm14.324.641h7.68v2.559h-7.68ZM5.762 12.16h7.68v2.559h-7.68Zm13.437 0h7.68v2.559h-7.68ZM5.762 16h7.68v2.559h-7.68Zm17.277 1.922a.638.638 0 1 1 0 1.277.641.641 0 0 1-.64-.64.64.64 0 0 1 .64-.637m0 2.558a.641.641 0 1 1 0 1.28.641.641 0 0 1 0-1.28M9.602 21.762a.638.638 0 1 1-.64.637.636.636 0 0 1 .64-.637m0 2.558a.64.64 0 0 1 0 1.281.641.641 0 0 1 0-1.28m0 0" style="stroke:none;fill-rule:nonzero;fill:rgb(0%,0%,0%);fill-opacity:1"/></svg>
